findly-builder/apps/searchassist/src/assets/images/pricing-plan/new-plan-pricing-img/pricing-plan-enterprise.svg

<svg width="80" height="80" viewBox="0 0 80 80" fill="none" xmlns="http://www.w3.org/2000/svg">
<rect width="80" height="80" rx="8" fill="#FEF8E6"/>
<g clip-path="url(#clip0_105_81642)">
<path d="M50.5778 39.8789H9.38568V30.2965H50.5778V39.8789Z" fill="#FFCF2D"/>
<path d="M9.36401 30.0234H50.6281V30.4645H9.36401V30.0234Z" fill="#9B3C82"/>
<path d="M9.31372 39.543H50.5778V39.9841H9.31372V39.543Z" fill="#9B3C82"/>
<path d="M46.3195 30.2422H46.7602V39.8703H46.3195V30.2422Z" fill="#9B3C82"/>
<path d="M38.1041 30.2422H38.5449V39.8703H38.1041V30.2422Z" fill="#9B3C82"/>
<path d="M29.2475 30.3516H29.6883V39.9797H29.2475V30.3516Z" fill="#9B3C82"/>
<path d="M20.8184 30.3516H21.2591V39.9797H20.8184V30.3516Z" fill="#9B3C82"/>
<path d="M12.9299 30.3516H13.3707V39.9797H12.9299V30.3516Z" fill="#9B3C82"/>
<path d="M55.1743 49.5508H13.9102V39.8163H55.1743V49.5508Z" fill="#FFCF2D"/>
<path d="M13.9604 39.543H55.2245V39.9841H13.9604V39.543Z" fill="#9B3C82"/>
<path d="M13.9102 49.0625H55.1743V49.5036H13.9102V49.0625Z" fill="#9B3C82"/>
<path d="M50.916 39.7656H51.3567V49.3937H50.916V39.7656Z" fill="#9B3C82"/>
<path d="M42.7006 39.7656H43.1413V49.3937H42.7006V39.7656Z" fill="#9B3C82"/>
<path d="M33.8438 39.8711H34.2846V49.4992H33.8438V39.8711Z" fill="#9B3C82"/>
<path d="M25.4148 39.8711H25.8556V49.4992H25.4148V39.8711Z" fill="#9B3C82"/>
<path d="M17.5264 39.8711H17.9671V49.4992H17.5264V39.8711Z" fill="#9B3C82"/>
<path d="M47.264 58.9102H6.04858V49.3394H47.264V58.9102Z" fill="#FFCF2D"/>
<path d="M6.05029 49.0664H47.3144V49.5075H6.05029V49.0664Z" fill="#9B3C82"/>
<path d="M6 58.5859H47.2641V59.027H6V58.5859Z" fill="#9B3C82"/>
<path d="M43.0057 49.2852H43.4465V58.9133H43.0057V49.2852Z" fill="#9B3C82"/>
<path d="M34.7904 49.2852H35.2312V58.9133H34.7904V49.2852Z" fill="#9B3C82"/>
<path d="M25.9338 49.3945H26.3745V59.0226H25.9338V49.3945Z" fill="#9B3C82"/>
<path d="M17.5046 49.3945H17.9454V59.0226H17.5046V49.3945Z" fill="#9B3C82"/>
<path d="M9.61621 49.3945H10.057V59.0226H9.61621V49.3945Z" fill="#9B3C82"/>
<path d="M40.2348 30.1521C42.0783 29.8948 43.3913 30.1656 44.1023 30.366C51.4947 32.4496 46.3555 50.616 55.4898 57.2135C56.9737 58.2854 58.4271 58.7892 59.2804 59.032C55.2595 59.0319 51.2386 59.0319 47.2178 59.0318C45.3126 56.3099 42.6454 51.7944 41.0943 45.6616C39.4348 39.1002 39.7708 33.5268 40.2348 30.1521V30.1521Z" fill="#9B3C82"/>
<path d="M42.1858 38.4258L42.2968 38.93C42.8225 41.2248 43.6446 43.6283 44.7673 46.0286C44.7812 46.0605 44.796 46.0914 44.8109 46.1232C44.8676 46.2436 44.9253 46.3641 44.9832 46.4835C46.0892 48.7722 47.3724 50.8449 48.7513 52.6416C48.8567 52.7801 48.9633 52.9156 49.0709 53.0502C50.8691 55.3141 52.819 57.1105 54.7486 58.3074C54.911 58.4089 55.0717 58.5041 55.2324 58.5954C55.2344 58.5974 55.2374 58.5986 55.2393 58.5997C55.2502 58.6062 55.261 58.6126 55.2718 58.6191C57.7778 60.035 60.2232 60.4156 62.2283 59.4701L67.166 57.1417L68.1634 56.6717L69.9752 55.8174C75.0086 53.4454 75.3699 43.6231 70.7827 33.8783C66.1965 24.1347 58.3976 18.1585 53.3653 20.5316L51.5566 21.383L51.5556 21.384L51.5555 21.385L50.5581 21.8549L50.557 21.8559L45.6183 24.1832C43.6122 25.1297 42.3488 27.2578 41.8449 30.0928C41.8088 30.2903 41.7776 30.491 41.7502 30.6958C41.4434 32.9471 41.5867 35.5961 42.1858 38.4258V38.4258Z" fill="#FFCF2D"/>
<path d="M48.7174 28.3264C48.6152 30.4284 48.83 32.7036 49.3406 35.0492C49.3762 35.2172 49.4149 35.3854 49.4545 35.5536C50.0017 37.8915 50.838 40.2896 51.9405 42.6448C51.9543 42.6766 51.9692 42.7075 51.9841 42.7394C52.0408 42.8598 52.0986 42.9802 52.1564 43.0997C53.2418 45.3471 54.5127 47.4263 55.91 49.2653C56.0135 49.4027 56.119 49.5392 56.2256 49.6746C57.7078 51.5614 59.324 53.1779 61.009 54.4367C61.2686 54.6309 61.5275 54.8149 61.786 54.9878C61.952 55.1004 62.1182 55.2081 62.2835 55.3116C63.9785 56.3709 65.6296 56.9862 67.1661 57.1397L68.1635 56.6697C67.9927 56.676 67.8223 56.6752 67.649 56.6683C62.6318 56.4674 56.3565 50.843 52.4396 42.5234C48.389 33.9177 48.1675 25.1978 51.5556 21.3828L50.5582 21.8527L50.5571 21.8537C49.6967 23.1368 49.1186 24.8028 48.8557 26.7863C48.8298 26.9801 48.8068 27.176 48.7877 27.3762C48.7561 27.6858 48.7334 28.003 48.7174 28.3264V28.3264Z" fill="#9B3C82"/>
<path d="M44.6623 46.0742L52.1414 42.5479L52.3562 43.0041L44.8771 46.5305L44.6623 46.0742Z" fill="#9B3C82"/>
<path d="M54.7486 58.3059L61.786 54.9883L62.1593 54.8125L62.3741 55.2693L62.2836 55.3122L55.2719 58.6176L54.7486 58.3059Z" fill="#9B3C82"/>
<path d="M48.7513 52.6427C48.8568 52.7812 48.9633 52.9167 49.0709 53.0513L56.2256 49.6779L56.2976 49.6434L56.0818 49.1875L55.9101 49.2684L48.7513 52.6427Z" fill="#9B3C82"/>
<path d="M41.845 30.0934L48.8557 26.7889L48.9461 26.7461L49.161 27.2029L48.7877 27.3788L41.7503 30.6963L41.845 30.0934Z" fill="#9B3C82"/>
<path d="M42.1859 38.4235L49.3405 35.0491L49.4125 35.0156L49.6273 35.4725L49.4546 35.5535L42.2968 38.9277L42.1859 38.4235Z" fill="#9B3C82"/>
<path d="M51.1906 29.4035C51.2108 33.0621 52.3204 37.4086 54.3131 41.644C56.3068 45.8784 58.9505 49.5028 61.7563 51.8474C63.7362 53.5017 65.6409 54.3867 67.3039 54.4533C68.0402 54.4828 68.7295 54.3519 69.3577 54.0559C71.4019 53.0918 72.516 50.5093 72.4955 46.784C72.4763 43.1263 71.3668 38.7789 69.373 34.5435C67.3793 30.309 64.7366 26.6847 61.9308 24.3411C59.0733 21.953 56.3736 21.1685 54.3295 22.1316C52.2852 23.0958 51.171 25.6782 51.1906 29.4035V29.4035ZM54.5442 22.5885C55.0984 22.327 55.7104 22.2112 56.3681 22.2375C57.9153 22.2994 59.7146 23.1458 61.6076 24.7279C64.3587 27.0259 66.9544 30.5888 68.9174 34.7594C70.8804 38.929 71.9718 43.2 71.9919 46.787C72.0107 50.3043 70.9989 52.7242 69.1429 53.599C67.2858 54.4747 64.7769 53.715 62.0785 51.4594C59.3283 49.1615 56.7327 45.5985 54.7697 41.4289C52.8066 37.2584 51.7143 32.9873 51.6952 29.4014C51.6754 25.8831 52.6882 23.4632 54.5442 22.5885V22.5885Z" fill="#9B3C82"/>
<path d="M63.0344 49.3245C62.9634 49.4096 62.8416 49.4403 62.7361 49.3919C62.6096 49.3339 62.5539 49.1842 62.6119 49.0576C64.6793 44.5402 66.5529 39.9749 64.8219 38.125C63.6609 36.8843 62.4562 37.4962 61.1809 38.144C60.021 38.7331 58.8216 39.3423 57.8095 38.2608C56.5267 36.8897 55.9945 33.7044 60.7446 26.3152C60.8194 26.1973 60.9758 26.1642 61.0929 26.2396C61.2099 26.3149 61.2438 26.4709 61.1684 26.5881C57.5995 32.1401 56.5373 36.1631 58.1775 37.916C58.8944 38.6823 59.6992 38.3309 60.9528 37.6942C62.2079 37.0566 63.7701 36.2632 65.1898 37.7803C67.1341 39.8582 65.2088 44.5945 63.0702 49.2677C63.0605 49.2886 63.0485 49.3076 63.0344 49.3245V49.3245Z" fill="#9B3C82"/>
<path d="M58.5999 30.7797C58.5781 30.8057 58.5507 30.8279 58.5182 30.8439C58.3935 30.9057 58.2423 30.8546 58.1806 30.7297L56.4423 27.2157C56.3805 27.0908 56.4313 26.9393 56.5564 26.8778C56.6811 26.816 56.8323 26.8671 56.8941 26.992L58.6323 30.506C58.678 30.5985 58.6619 30.7054 58.5999 30.7797Z" fill="#9B3C82"/>
<path d="M66.8994 49.1318C66.8772 49.1583 66.8493 49.1805 66.8163 49.1967C66.6911 49.2578 66.5404 49.2057 66.4794 49.0805L64.6406 45.3042C64.5795 45.1788 64.6318 45.0279 64.7567 44.967C64.8819 44.9059 65.0326 44.958 65.0936 45.0831L66.9324 48.8595C66.9774 48.9517 66.961 49.0579 66.8994 49.1318V49.1318Z" fill="#9B3C82"/>
</g>
<defs>
<clipPath id="clip0_105_81642">
<rect width="68" height="40" fill="white" transform="translate(6 20)"/>
</clipPath>
</defs>
</svg>

<svg width="80" height="80" fill="none" xmlns="http://www.w3.org/2000/svg"><rect width="80" height="80" rx="8" fill="#FEF8E6"/><g clip-path="url(#a)"><path d="M50.578 39.879H9.386v-9.582h41.192v9.582Z" fill="#FFCF2D"/><path d="M9.364 30.023h41.264v.442H9.364v-.442Zm-.05 9.52h41.264v.441H9.314v-.441Z" fill="#9B3C82"/><path d="M46.32 30.242h.44v9.628h-.44v-9.628Zm-8.216 0h.44v9.628h-.44v-9.628Zm-8.857.11h.441v9.628h-.44v-9.628Zm-8.429 0h.441v9.628h-.44v-9.628Zm-7.888 0h.44v9.628h-.44v-9.628Z" fill="#9B3C82"/><path d="M55.174 49.55H13.91v-9.734h41.264v9.735Z" fill="#FFCF2D"/><path d="M13.96 39.543h41.264v.441H13.96v-.441Zm-.05 9.52h41.264v.44H13.91v-.44Z" fill="#9B3C82"/><path d="M50.916 39.766h.44v9.628h-.44v-9.628Zm-8.216 0h.441v9.628h-.44v-9.628Zm-8.856.105h.44V49.5h-.44v-9.628Zm-8.429 0h.44V49.5h-.44v-9.628Zm-7.889 0h.441V49.5h-.44v-9.628Z" fill="#9B3C82"/><path d="M47.264 58.91H6.049v-9.57h41.215v9.57Z" fill="#FFCF2D"/><path d="M6.05 49.066h41.264v.441H6.05v-.44ZM6 58.586h41.264v.441H6v-.441Z" fill="#9B3C82"/><path d="M43.006 49.285h.44v9.628h-.44v-9.628Zm-8.216 0h.441v9.628h-.44v-9.628Zm-8.856.11h.44v9.628h-.44v-9.629Zm-8.429 0h.44v9.628h-.44v-9.629Zm-7.889 0h.441v9.628h-.44v-9.629Z" fill="#9B3C82"/><path d="M40.235 30.152c1.843-.257 3.156.014 3.867.214 7.393 2.084 2.254 20.25 11.388 26.848a12.164 12.164 0 0 0 3.79 1.818H47.218a40.778 40.778 0 0 1-6.124-13.37 40.707 40.707 0 0 1-.86-15.51Z" fill="#9B3C82"/><path d="m42.186 38.426.11.504c.526 2.295 1.349 4.698 2.471 7.099l.044.094c.057.12.114.241.172.36a35.55 35.55 0 0 0 3.768 6.159c.106.138.212.274.32.408 1.798 2.264 3.748 4.06 5.678 5.257.162.102.323.197.483.288l.007.005.033.02c2.506 1.415 4.951 1.796 6.956.85l4.938-2.328.997-.47 1.812-.855c5.034-2.372 5.395-12.194.808-21.939-4.587-9.743-12.385-15.72-17.418-13.346l-1.808.851-.001.001v.001l-.998.47h-.001l-4.939 2.328c-2.006.947-3.27 3.075-3.773 5.91a13.58 13.58 0 0 0-.095.603c-.307 2.251-.163 4.9.436 7.73Z" fill="#FFCF2D"/><path d="M48.717 28.326c-.102 2.102.113 4.378.624 6.723a36.397 36.397 0 0 0 2.6 7.596 38.51 38.51 0 0 0 .216.455 36.351 36.351 0 0 0 4.069 6.575c1.482 1.886 3.098 3.503 4.783 4.762a18.073 18.073 0 0 0 1.274.875c1.695 1.059 3.347 1.674 4.883 1.828l.998-.47a6.69 6.69 0 0 1-.515-.002c-5.017-.2-11.293-5.825-15.21-14.145-4.05-8.605-4.272-17.325-.883-21.14l-.998.47c-.861 1.284-1.44 2.95-1.702 4.933a18.257 18.257 0 0 0-.138 1.54Z" fill="#9B3C82"/><path d="m44.662 46.074 7.48-3.526.214.456-7.479 3.527-.215-.457Zm10.087 12.232 7.037-3.318.373-.175.215.456-.09.043-7.012 3.306-.523-.312Zm-5.998-5.663c.106.138.212.274.32.408l7.155-3.373.072-.035-.216-.456-.172.081-7.159 3.375Zm-6.906-22.55 7.01-3.304.091-.043.215.457-.373.176-7.038 3.317.095-.603Zm.341 8.33 7.154-3.374.072-.033.215.456-.172.081-7.158 3.375-.111-.505Zm9.004-9.019c.02 3.658 1.13 8.005 3.123 12.24 1.994 4.234 4.637 7.859 7.443 10.203 1.98 1.655 3.885 2.54 5.548 2.606a4.352 4.352 0 0 0 2.054-.397c2.044-.964 3.158-3.547 3.138-7.272-.02-3.658-1.13-8.005-3.123-12.24-1.994-4.235-4.636-7.86-7.442-10.203-2.858-2.388-5.557-3.172-7.601-2.21-2.045.965-3.159 3.547-3.14 7.273Zm3.354-6.816a3.86 3.86 0 0 1 1.824-.35c1.547.061 3.347.908 5.24 2.49 2.75 2.298 5.346 5.86 7.31 10.031 1.962 4.17 3.054 8.441 3.074 12.028.019 3.517-.993 5.937-2.85 6.812-1.856.876-4.365.116-7.063-2.14-2.75-2.298-5.346-5.86-7.31-10.03-1.962-4.17-3.055-8.442-3.074-12.028-.02-3.518.993-5.938 2.85-6.813Z" fill="#9B3C82"/><path d="M63.034 49.325a.252.252 0 0 1-.422-.267c2.067-4.518 3.94-9.083 2.21-10.933-1.161-1.24-2.366-.629-3.641.019-1.16.59-2.36 1.198-3.371.117-1.283-1.371-1.816-4.557 2.935-11.946a.252.252 0 0 1 .424.273c-3.57 5.552-4.632 9.575-2.992 11.328.717.766 1.522.415 2.776-.222 1.255-.637 2.817-1.43 4.237.086 1.944 2.078.019 6.814-2.12 11.488a.258.258 0 0 1-.036.056Z" fill="#9B3C82"/><path d="M58.6 30.78a.251.251 0 0 1-.42-.05l-1.738-3.514a.252.252 0 1 1 .452-.224l1.738 3.514c.046.093.03.2-.032.274Zm8.3 18.352a.252.252 0 0 1-.42-.051l-1.84-3.777a.252.252 0 0 1 .454-.22l1.838 3.775a.252.252 0 0 1-.033.273Z" fill="#9B3C82"/></g><defs><clipPath id="a"><path fill="#fff" transform="translate(6 20)" d="M0 0h68v40H0z"/></clipPath></defs></svg>
